app/images/icons/badge-summer-of-sexps.svg

<svg xmlns="http://www.w3.org/2000/svg" width="748" height="747" fill="none"><path fill="#000" d="m532.506 531.847 17.594 17.601c97.208-97.25 97.197-254.896 0-352.138l-17.594 17.611c87.323 87.371 87.334 229.553 0 316.924v.002Zm-43.994-44.029 17.593 17.622c72.901-72.933 72.891-191.176 0-264.101l-17.593 17.601c63.073 63.11 63.082 165.779 0 228.872v.006Zm87.989 88.043 17.604 17.606c121.5-121.557 121.489-318.617 0-440.163l-17.604 17.612c111.584 111.627 111.599 293.286 0 404.948v-.003Zm43.995 44.024 17.604 17.601c145.787-145.863 145.787-382.338 0-528.201l-17.604 17.601c135.853 135.912 135.853 357.074 0 492.999Zm-176-176.076 17.604 17.612c48.598-48.609 48.588-127.446 0-176.063l-17.594 17.601c38.812 38.85 38.807 102.018-.01 140.848v.002ZM110.122 637.506c.063.058.157.141.224.209l-.224-.209 17.594-17.6c-135.867-135.926-135.854-357.061 0-492.987l.01-.01-17.604-17.601v.01c-145.813 145.837-145.813 382.312 0 528.188Zm43.995-44.029 17.593-17.601c-111.593-111.642-111.593-293.3 0-404.935v-.01l-17.593-17.612-.01.016c-121.48 121.536-121.48 318.591.01 440.15v-.008Zm87.995-88.028 17.604-17.622c-63.083-63.11-63.094-165.791-.011-228.885l-17.588-17.587c-72.901 72.928-72.912 191.15-.005 264.101v-.007Zm-43.995 44.014 17.604-17.601c-87.344-87.382-87.333-229.539 0-316.923l-17.604-17.612c-97.197 97.235-97.203 254.883 0 352.125v.011Zm88-88.038 17.593-17.601c-38.817-38.834-38.817-102.013 0-140.861l-17.593-17.601c-48.609 48.625-48.609 127.441 0 176.063ZM389.72 395.29c0 8.679-7.513 14.102-14.169 14.102-6.655 0-14.638-2.696-14.638-14.102v-5.547h-8.767v5.547c0 12.632 10.504 22.905 23.405 22.905 12.902 0 23.406-10.273 23.406-22.905v-5.547h-9.237v5.547ZM316.09 368.503c0-8.288 7.188-15.028 16.02-15.028 8.825 0 16.013 6.745 16.013 15.028h10.09c0-13.514-11.704-24.503-26.103-24.503-14.4 0-26.11 10.989-26.11 24.503h10.09ZM399.237 368.503c0-8.288 7.188-15.028 16.013-15.028 8.832 0 16.02 6.745 16.02 15.028h10.09c0-13.514-11.71-24.503-26.11-24.503-14.4 0-26.104 10.989-26.104 24.503h10.091Z"/></svg>

<svg width="748" height="747" viewBox="0 0 748 747" fill="none" xmlns="http://www.w3.org/2000/svg">
<path d="M532.506 531.847L550.1 549.448C647.308 452.198 647.297 294.552 550.1 197.31L532.506 214.921C619.829 302.292 619.84 444.474 532.506 531.845V531.847ZM488.512 487.818L506.105 505.44C579.006 432.507 578.996 314.264 506.105 241.339L488.512 258.94C551.585 322.05 551.594 424.719 488.512 487.812V487.818ZM576.501 575.861L594.105 593.467C715.605 471.91 715.594 274.85 594.105 153.304L576.501 170.916C688.085 282.543 688.1 464.202 576.501 575.864V575.861ZM620.496 619.885L638.1 637.486C783.887 491.623 783.887 255.148 638.1 109.285L620.496 126.886C756.349 262.798 756.349 483.96 620.496 619.885ZM444.496 443.809L462.1 461.421C510.698 412.812 510.688 333.975 462.1 285.358L444.506 302.959C483.318 341.809 483.313 404.977 444.496 443.807L444.496 443.809ZM110.122 637.506C110.185 637.564 110.279 637.647 110.346 637.715L110.122 637.506L127.716 619.906C-8.151 483.98 -8.13766 262.845 127.716 126.919L127.726 126.909L110.122 109.308V109.318C-35.6913 255.155 -35.691 491.63 110.122 637.506ZM154.117 593.477L171.71 575.876C60.117 464.234 60.117 282.576 171.71 170.941V170.931L154.117 153.319L154.107 153.335C32.6279 274.871 32.6279 471.926 154.117 593.485V593.477ZM242.112 505.449L259.716 487.827C196.633 424.717 196.622 322.036 259.705 258.942L242.117 241.355C169.216 314.283 169.205 432.505 242.112 505.456L242.112 505.449ZM198.117 549.463L215.721 531.862C128.377 444.48 128.388 302.323 215.721 214.939L198.117 197.327C100.92 294.562 100.914 452.21 198.117 549.452V549.463ZM286.117 461.425L303.71 443.824C264.893 404.99 264.893 341.811 303.71 302.963L286.117 285.362C237.508 333.987 237.508 412.803 286.117 461.425Z" fill="black"/>
<path d="M389.72 395.29C389.72 403.969 382.207 409.392 375.551 409.392C368.896 409.392 360.913 406.696 360.913 395.29V389.743H352.146V395.29C352.146 407.922 362.65 418.195 375.551 418.195C388.453 418.195 398.957 407.922 398.957 395.29V389.743H389.72V395.29Z" fill="black"/>
<path d="M316.09 368.503C316.09 360.215 323.278 353.475 332.11 353.475C340.935 353.475 348.123 360.22 348.123 368.503H358.213C358.213 354.989 346.509 344 332.11 344C317.71 344 306 354.989 306 368.503H316.09Z" fill="black"/>
<path d="M399.237 368.503C399.237 360.215 406.425 353.475 415.25 353.475C424.082 353.475 431.27 360.22 431.27 368.503H441.36C441.36 354.989 429.65 344 415.25 344C400.85 344 389.146 354.989 389.146 368.503H399.237Z" fill="black"/>
</svg>
